!!!OTL: Graf und Nonne (Die Nonne)
!!!OTL-incipit:Ich stand auf hohem Berge,
!!!ARE: Europa, Mitteleuropa, Deutschland / UdSSR, Kurisches Haff, Karkeln
!!!YOR: 8, S. 292
!!    1830 aufgezeichnet
!!!SCT: Q0155R.
!!!TXL: @@DE
!!!YEM: Copyright 1995, estate of Helmut Schaffrath.
**kern	**text
*ICvox	*
*M2/4	*
*k[f#]	*
*G:	*
{(8bL	Ich
8ccJ)	.
=1	=1
4.dd	stand
8ee	auf
=2-	=2-
(8ddL	ho-
8cc)	.
(8b	-hem
8aJ)	.
=3	=3
2b;	Ber-
=4	=4
2a;}	-ge,
=5	=5
{4b	Jch
8bL	stand
8bJ	und
=6	=6
4cc#	schau-
4cc#;	-te
=7	=7
4dd}	hin.
{(8bL	Ich
8ccJ)	.
=8	=8
4.dd	stand
8ee	auf
=9-	=9-
(8ddL	ho-
8cc)	.
(8b	-hem
8aJ)	.
=10	=10
2b;	Ber-
=11	=11
2a;}	-ge,
=12	=12
{4b	Jch
8bL	stand
8bJ	und
=13	=13
4cc#	schau-
4cc#;	-te
=14	=14
4dd}	hin.
{4dd	Ein
=15	=15
4gg	Schiff-
4gg	-lein
=16	=16
4ff#	sah
(8gg\q	.
4ff#)	ich
=17	=17
2ee	lan-
=18	=18
4.dd	-den
8dd	ja
=19	=19
2cc	lan-
=20	=20
4b}	-den,
{4dd	drei
=21	=21
4ee	Prin-
(8ddL	-zen
8ccJ)	.
=22	=22
4b	stan-
4a	-den
=23	=23
2g;	drin.
=24	=24
4r}	.
{4dd	Ein
=25	=25
4gg	Schiff-
4gg	-lein
=26	=26
4ff#	sah
(8gg\q	.
4ff#)	ich
=27	=27
2ee	lan-
=28	=28
4.dd	-den
8dd	ja
=29	=29
2cc	lan-
=30	=30
4b}	-den,
{4dd	drei
=31	=31
4ee	Prin-
(8ddL	-zen
8ccJ)	.
=32	=32
4b	stan-
4a	-den
=33	=33
2g;}	drin.
==	==
!!!AGN: Ballade, Standesunterschied, vergebliche Werbung, Liebe, Klage
!! Anhaengsel an der fuenften und siebten Zeile. Verzierung (Vorschlag)
!!    Taktstrich in der ersten und dritten Zeile eingefuegt.
!!    Schlusspause ergaenzt.
!!!ONB: ESAC (Essen Associative Code) Database: BALLADE
!!!AMT: simple duple
!!!AIN: vox
!!!EED: Helmut Schaffrath
!!!EEV: 1.0
!!!source: Deutsche Volkslieder mit ihren Melodien. Herausgegeben vom Deutschen Volksliedarchiv. Achter Teil. Freiburg/Breisgau 1988.
!!!page: 292
!!!ENC: Anna Maria Matuszewska
!!!EEV: 2025/03/10
*-	*-
